!!!COM: Bach, Johann Sebastian
!!!CDT: 1685/3//-1750/7/28/
!!!OTL@@DE: Sei Lob und Ehr' dem hoechsten Gut
!!!AGN: 4-Part Chorale
!!!SCT: BH 248
!!!SCT: BWV 117
**harm	**root	**kern	**kern	**kern	**kern
!	!	!bass	!tenor	!alto	!soprno
*	*Iorgan	*Iorgan	*Iorgan	*Iorgan	*Iorgan
*M4/4	*M4/4	*M4/4	*M4/4	*M4/4	*M4/4
*met(c)	*met(c)	*met(c)	*met(c)	*met(c)	*met(c)
*MM60	*MM60	*MM60	*MM60	*MM60	*MM60
*k[f#]	*k[f#]	*k[f#]	*k[f#]	*k[f#]	*k[f#]
*G:	*G:	*G:	*G:	*G:	*G:
*>[A,A,B]	*>[A,A,B]	*>[A,A,B]	*>[A,A,B]	*>[A,A,B]	*>[A,A,B]
*>A	*>A	*>A	*>A	*>A	*>A
Vb	4DD	4F#	8d	4a	4dd
.	.	.	8c	.	.
=1	=1	=1	=1	=1	=1
I	4GG	4G	4B	4g	4dd
V	4DD	4D	4A	8g	4dd
.	.	.	.	8f#	.
I	4GG	4GG	4B	4g	8dd
.	.	.	.	.	8ee
-VIIb	8FF	8AA	4A	8c	4ffn
viio7/IV	8BB	8BB	.	8d	.
=2	=2	=2	=2	=2	=2
I/IV	4CC	4C	8G	8.e	4ee
.	.	.	8c	.	.
.	.	.	.	16fn	.
V/IV	4GG	4GG	8c	4g	4dd
.	.	.	8B	.	.
I/IV;	4CC;	4C;	4e;	4g;	4cc;
V	4DD	4F#	4d	4a	4dd
=3	=3	=3	=3	=3	=3
I	4GG	4.G	8d	4g	8b
.	.	.	8c	.	8a
I	8GG	.	8B	4d	8g
Vb	8DD	8F#	8A	.	8a
vi	4EE	8E	4G	8g	4b
.	.	8F#	.	8f#	.
V7d/V	4AA	8G	4A	4e	4cc#
.	.	8A	.	.	.
=4	=4	=4	=4	=4	=4
Vb	8DD	8F#	8A	8a	4dd
V	8DD	8D	4d	8f#	.
V7/V	4AA	4A	.	4g	4ee
.	.	.	8c#	.	.
V;	4DD;	4D;	4d;	4f#;	4dd;
=:|!	=:|!	=:|!	=:|!	=:|!	=:|!
*>B	*>B	*>B	*>B	*>B	*>B
I	4GG	8G	4d	4b	4dd
.	.	8A	.	.	.
=5	=5	=5	=5	=5	=5
Ib	4GG	8B	8d	4b	4gg
.	.	8c#	8e	.	.
V	4DD	4d	8f#	8a	4ff#
.	.	.	8g	8b	.
V/V	4AA	4A	8a	4cc#	4ee
.	.	.	8g	.	.
Vb/iii	4FF#	4A#	8f#	4cc#	4ff#
.	.	.	8e	.	.
!!linebreak: 2
=6	=6	=6	=6	=6	=6
Ib	4GG	8B	4d	4dd	8gg
.	.	8G	.	.	8ff#
V/V	4AA	4A	4c#	8a	4ee
.	.	.	.	8g	.
V;	4DD;	4D;	4A;	4f#;	4dd;
I	4GG	8G	4B	4g	4dd
.	.	8F#	.	.	.
=7	=7	=7	=7	=7	=7
vi	4EE	8E	8B	4g	4gg
.	.	8D	8c	.	.
Ib	4GG	8C	4d	4g	4dd
.	.	8BB	.	.	.
IV	4CC	8C	4c	4g	4ee
.	.	8D	.	.	.
vi	4EE	4E	8G	4g	8b
.	.	.	8e	.	8cc
=8	=8	=8	=8	=8	=8
Vb	8DD	8F#	8d	8a	4dd
viio/V/V	8GG#	8G#	8B	8b	.
V/V	4AA	4A	8c	8e	4cc
.	.	.	16e	8a	.
.	.	.	16d#	.	.
VI;	4EE;	4E;	4e;	4g#;	4b;
I	4GG	4Gn	4dn	4gn	4b
=9	=9	=9	=9	=9	=9
Vb	4DD	4F#	4d	4a	8a
.	.	.	.	.	8b
IVb	8CC	8E	4e	8g	4cc
viio7	8FF#	8F#	.	8a	.
I	4GG	4G	4d	8b	4b
.	.	.	.	8g	.
iib	4AA	4C	8c	4e	4a
.	.	.	8B	.	.
=10	=10	=10	=10	=10	=10
Vb/V	4AA	4C#	2A	4e	4e
V	4DD	4D	.	4d	4f#
I;	4GG;	4GG;	4B;	4d;	4g;
==	==	==	==	==	==
*-	*-	*-	*-	*-	*-
!!!ONB: Near duplicate with erk354.krn
!!chor2scor: -l 2 -s 0.6 -o %b.pmx
!!!YEC: Copyright 1994, David Huron
!!!YEC: Changes/Additions 2001 by Craig Stuart Sapp
!!!YEN: United States of America
!!!SMA: 371 Bach Chorales, edited by Ludwig Erk, C.F. Peters
!!!PDT: 1850, 1865
!!!ONB: Harmony and Root analysis done manually 
